X:283
T:Wi' a Hundred Pipers
O:scotland
R:Jig
M:6/8
K:A
A/B/|\
c2E EFE|F2A A2f|e2c cBA|c2B BAB|\
c2E EFE|F2A A2f|e2c BAB|A2A A2:|
|:c/d/|\
e2e ece|f2a agf|e2c cBA|c2B BAB|\
c2e ece|f2a agf|e2c BAB|A2A A2:|
